build/documents/DeleteDocsSolid.svg

<svg xmlns="http://www.w3.org/2000/svg" fill="none" viewBox="0 0 24 24" focusable="false"><path d="M0 0H24V24H0z" transform="matrix(1 0 0 -1 0 24)"/><path fill="#74767B" fill-rule="evenodd" d="M4.15626 2.10789C4.44077 1.88898 4.84888 1.94217 5.06778 2.22669L7.06301 4.81993C7.57958 3.91504 8.55365 3.30508 9.6702 3.30508L17.6499 3.30508C19.3068 3.30508 20.65 4.64822 20.65 6.30508L20.65 16.2996C20.65 17.7794 19.5785 19.0089 18.1691 19.2548L19.4969 20.9806C19.7158 21.2651 19.6626 21.6732 19.3781 21.8921C19.0936 22.111 18.6855 22.0578 18.4666 21.7733L6.6702 6.44239L6.6702 6.44126L4.03746 3.01942C3.81855 2.7349 3.87174 2.3268 4.15626 2.10789ZM14.9222 19.2996L9.6702 19.2996C8.01335 19.2996 6.6702 17.9564 6.6702 16.2996L6.6702 8.57426L14.9222 19.2996ZM4.6283 8.68137C4.98728 8.68137 5.2783 8.97238 5.2783 9.33137L5.2783 18.3513C5.2783 19.6492 6.33042 20.7013 7.62829 20.7013L15.6291 20.7013C15.9881 20.7013 16.2791 20.9924 16.2791 21.3513C16.2791 21.7103 15.9881 22.0013 15.6291 22.0013L7.62829 22.0013C5.61245 22.0013 3.9783 20.3672 3.9783 18.3513L3.9783 9.33137C3.9783 8.97238 4.26931 8.68137 4.6283 8.68137Z"/></svg>

<svg xmlns="http://www.w3.org/2000/svg" fill="none" viewBox="0 0 24 24" focusable="false"><path fill="#74767B" fill-rule="evenodd" d="M5.06 2.22a.65.65 0 0 0-.91-.12c-.28.22-.34.63-.12.91l2.64 3.43 11.79 15.33c.22.28.63.34.91.12.29-.22.34-.63.12-.91l-1.33-1.73a3.01 3.01 0 0 0 2.48-2.96V6.3c0-1.66-1.34-3-3-3H9.67c-1.12 0-2.1.61-2.61 1.51zm9.86 17.07H9.67c-1.66 0-3-1.34-3-3V8.57zM4.62 8.68c.36 0 .65.29.65.65v9.02a2.36 2.36 0 0 0 2.35 2.35h8c.36 0 .65.29.65.65s-.29.65-.65.65h-8c-2.01 0-3.65-1.64-3.65-3.65V9.33c0-.36.29-.65.65-.65"/></svg>
